X:57
T:Cameron Highlander, The
M:4/4
L:1/8
R:barndance
D:Stockton's wings
D:Buzzin' by Bumblebees
K: Amaj
ec|"A"(3AAA ce Aece|feec eaga|(3AAA ce Aece|"D"dBBA "E"B2ec|
"A"(3AAA ce Aece|"D"fAgA "E"gAaa|faea caBa|1cA{c}AF A2ec:|2cA{c}AF A2 
(3aaa||
faea caBa|cAce  ~a3e |faea caBa|cBBA B2 (3aaa|
faea caBa|cAce  ~a3e |faea caBa|cA{c}AF A2 (3aaa|
faea caBa|cAce  ~a3e |faea caBa|cBBA B2 (3aaa|
faea caBa|cAce  ~a3e |faea caBa|cA{c}AF A2 ec||
